X: 382
T: Fengchui yunr san
%%abc-version 2.0
%%abcx-abcm2ps-target-version 5.9.1 (29 Sep 2008)
%%abc-creator hum2abc beta
%%abcx-conversion-date 2013/10/02 07:52:30
%%abc-edited-by Helmut Schaffrath
%%humdrum-veritas 3414778818
%%humdrum-veritas-data 4199565743
%%continueall 1
%%barnumbers 0
L: 1/8
M: 2/4
K: F
A c d f/ d/ [I:setbarnb 1]| 
c4 | 
A c/ c/ d f/ d/ | 
c4 | 
Ac2d | 
f dc2 | 
c G c A/ G/ | 
F4 | 
A FG2 | 
G c A G/ F/ | 
GD2C | 
D4 | 
A FG2 | 
G c A G/ F/ | 
GD2C | 
D4 |]  



